resources/img/btn_facebook.svg

<svg width="52" height="51" viewBox="0 0 52 51" fill="none" xmlns="http://www.w3.org/2000/svg">
<rect x="0.5" width="51" height="51" rx="10" fill="#4267B2"/>
<path d="M37.2518 14.6176L34.1687 14.6189C31.7513 14.6189 31.2832 15.7677 31.2832 17.4535V21.1708H37.0487L36.2979 26.9932H31.2832V41.9329H25.2707V26.9932H20.2432V21.1708H25.2707V16.8769C25.2707 11.894 28.3139 9.18066 32.7592 9.18066C34.8884 9.18066 36.7184 9.33916 37.2519 9.41005L37.2518 14.6176Z" fill="white"/>
</svg>

<svg fill="none" height="51" viewBox="0 0 52 51" width="52" xmlns="http://www.w3.org/2000/svg"><rect fill="#4267b2" height="51" rx="10" width="51" x=".5"/><path d="m37.2518 14.6176-3.0831.0013c-2.4174 0-2.8855 1.1488-2.8855 2.8346v3.7173h5.7655l-.7508 5.8224h-5.0147v14.9397h-6.0125v-14.9397h-5.0275v-5.8224h5.0275v-4.2939c0-4.9829 3.0432-7.69624 7.4885-7.69624 2.1292 0 3.9592.1585 4.4927.22939z" fill="#fff"/></svg>
